X:04
C:Page 02
T:Ap Shenkin. MBe.04
S:Matthew Betham MS, Towcett Cumbria, 1815
O:England;Cumbria;Towcett
Z:VMP – Hugh Taylor, 2012
T:Tempest,aka. MBe.04, The
M:6/8
L:1/8
Q:3/8=120
R:.Jig
N:This note could be either ‘c’ or ‘B’
K:D
A/G/|F2 F Fdc|B2 B Bcd|ABA AGF|FEE EAG|
F2 F Fdc|B2 B Bcd|ABA GFE|D2 D D2!fine!:|
d/e/|f2 d e2 c|dcB AGF|GAB AdF|FEE E2 d/e/|
f2 d e2 c|dcB edc|fed cd”^NB”B|Adc BAG!D.C.!|]

